T: Thistle Schottische, The
M: 4/4
L: 1/8
K: Gmaj
dg B2 GdgB | ce A2 EAcA | FA f2 decA | GB g2 d^c=cA |d2 B2 G2 gd | e2 c2 A2 EG | FAfe d^c=cA | G2 g2 G |]
